!!!OTL: ES HUETET EIN SCHAEFER AN JENEM HOLZ
!!!ARE: Europa, Mitteleuropa, Deutschland, Kassel, Witzenhausen, Alberode
!!!SCT: E0212C
!!!YEM: Copyright 1995, estate of Helmut Schaffrath.
**kern
*ICvox
*Ivox
*M4/4
*k[f#]
*G:
{4d
=1
4g
8g
8g
8a
8cc
8a
8a
=2
4.b
8a
4g}
{8g
8a
=3
4b
8b
8b
4cc
8cc
8ee
=4
4.dd
8cc
4b}
{4dd
=5
4.cc
8b
4a
4cc
=6
2b
2a
=7
2g
4r}
==
!!!AGN: erzaehlendes Volks - Lied, Mahn -, Moral - Lied, Strafe, Rabenmutter
!!!ONB: ESAC (Essen Associative Code) Database: ERK1
!!!AMT: simple quadruple
!!!AIN: vox
!!!EED: Helmut Schaffrath
!!!EEV: 1.0
*-
